svgs/1F623.svg

<svg xmlns="http://www.w3.org/2000/svg" version="1.1" xmlns:xlink="http://www.w3.org/1999/xlink" preserveAspectRatio="none" x="0px" y="0px" width="72px" height="72px" viewBox="0 0 72 72">
<defs>
<g id="Layer0_0_FILL">
<path fill="#FCC21B" stroke="none" d="
M 36 5.55
Q 13.8 5.55 5.05 26.1 0.3 37.3 0.3 52.45 0.3 58.25 10.75 62.35 21.2 66.45 36 66.45 50.75 66.45 61.25 62.35 71.7 58.2 71.7 52.45 71.7 37.3 66.95 26.1 58.2 5.55 36 5.55 Z"/>
</g>

<g id="Layer0_3_FILL">
<path fill="#ED6C30" stroke="none" d="
M 36 46.75
Q 32.55 46.75 29.6 47.95 27.65 48.75 26.1 50 24.45 51.4 23.85 53.05 23.25 54.75 24.25 55.3 25 55.7 26.1 55.65 26.258984375 55.60234375 28.6 54.75 30.9921875 53.9404296875 35.05 53.85 39.1576171875 53.7591796875 42.5 54.65 45.8408203125 55.597265625 45.95 55.65 47.1 55.7 47.8 55.3 48.85 54.75 48.25 53.05 47.65 51.4 45.9 50 44.4 48.75 42.45 47.95 39.55 46.75 36 46.75 Z"/>
</g>

<path id="Layer0_1_1_STROKES" stroke="#2F2F2F" stroke-width="3" stroke-linejoin="round" stroke-linecap="round" fill="none" d="
M 57.1 24.95
Q 51.05 25.15 47.45 21.15
M 13.5 24.95
Q 19.55 25.15 23.15 21.15"/>

<path id="Layer0_2_MEMBER_0_1_STROKES" stroke="#2F2F2F" stroke-width="3" stroke-linejoin="round" stroke-linecap="round" fill="none" d="
M 54.03445129394531 43.14772491455078
Q 48.03001403808594 38.93029098510742 40.83504180908203 36.28736572265625 48.03001403808594 33.47574310302734 54.03445129394531 29.42700653076172"/>

<path id="Layer0_2_MEMBER_1_1_STROKES" stroke="#2F2F2F" stroke-width="3" stroke-linejoin="round" stroke-linecap="round" fill="none" d="
M 18.036875915527343 43.14772491455078
Q 24.04131317138672 38.93029098510742 31.236285400390624 36.28736572265625 24.04131317138672 33.47574310302734 18.036875915527343 29.42700653076172"/>
</defs>

<g id="Layer_1">
<g transform="matrix( 1, 0, 0, 1, 0,0) ">
<use xlink:href="#Layer0_0_FILL"/>
</g>

<g transform="matrix( 1, 0, 0, 1, 0.7,0) ">
<use xlink:href="#Layer0_1_1_STROKES"/>
</g>

<g transform="matrix( 1.035247802734375, 0, 0, 1.1246490478515625, -4.25,-4.2) ">
<use xlink:href="#Layer0_2_MEMBER_0_1_STROKES" transform="matrix( 0.9659423828125, 0, 0, 0.88916015625, 4.1,3.7) "/>
</g>

<g transform="matrix( 1.035247802734375, 0, 0, 1.1246490478515625, 0.8,-4.2) ">
<use xlink:href="#Layer0_2_MEMBER_1_1_STROKES" transform="matrix( 0.9659423828125, 0, 0, 0.88916015625, -0.75,3.7) "/>
</g>

<g transform="matrix( 1, 0, 0, 1.1460723876953125, 0,-7.45) ">
<use xlink:href="#Layer0_3_FILL"/>
</g>
</g>
</svg>

<svg xmlns="http://www.w3.org/2000/svg" xmlns:xlink="http://www.w3.org/1999/xlink" preserveAspectRatio="none" viewBox="0 0 72 72"><defs><path id="a" fill="#FCC21B" d="M36 5.55q-22.2 0-30.95 20.55Q.3 37.3.3 52.45q0 5.8 10.45 9.9 10.45 4.1 25.25 4.1 14.75 0 25.25-4.1 10.45-4.15 10.45-9.9 0-15.15-4.75-26.35Q58.2 5.55 36 5.55z"/><path id="e" fill="#ED6C30" d="M36 46.75q-3.45 0-6.4 1.2-1.95.8-3.5 2.05-1.65 1.4-2.25 3.05-.6 1.7.4 2.25.75.4 1.85.35.159-.048 2.5-.9 2.392-.81 6.45-.9 4.108-.09 7.45.8 3.34.947 3.45 1 1.15.05 1.85-.35 1.05-.55.45-2.25-.6-1.65-2.35-3.05-1.5-1.25-3.45-2.05-2.9-1.2-6.45-1.2z"/><path id="b" fill="none" stroke="#2F2F2F" stroke-linecap="round" stroke-linejoin="round" stroke-width="3" d="M57.1 24.95q-6.05.2-9.65-3.8m-33.95 3.8q6.05.2 9.65-3.8"/><path id="c" fill="none" stroke="#2F2F2F" stroke-linecap="round" stroke-linejoin="round" stroke-width="3" d="M54.034 43.148q-6.004-4.218-13.199-6.86 7.195-2.812 13.2-6.861"/><path id="d" fill="none" stroke="#2F2F2F" stroke-linecap="round" stroke-linejoin="round" stroke-width="3" d="M18.037 43.148q6.004-4.218 13.2-6.86-7.196-2.812-13.2-6.861"/></defs><use xlink:href="#a"/><use transform="translate(.7)" xlink:href="#b"/><use transform="matrix(.99999 0 0 1 -.005 -.039)" xlink:href="#c"/><use transform="matrix(.99999 0 0 1 .024 -.039)" xlink:href="#d"/><use transform="matrix(1 0 0 1.14607 0 -7.45)" xlink:href="#e"/></svg>
